www/images/vector/logos/github.svg

<?xml version="1.0" encoding="UTF-8" standalone="no"?>
<svg width="111px" height="108px" viewBox="0 0 111 108" version="1.1" xmlns="http://www.w3.org/2000/svg" xmlns:xlink="http://www.w3.org/1999/xlink" xmlns:sketch="http://www.bohemiancoding.com/sketch/ns">
    <!-- Generator: Sketch 3.2.2 (9983) - http://www.bohemiancoding.com/sketch -->
    <title>Imported Layers</title>
    <desc>Created with Sketch.</desc>
    <defs></defs>
    <g id="Page-1" stroke="none" stroke-width="1" fill="none" fill-rule="evenodd" sketch:type="MSPage">
        <path d="M55.0917647,0 C24.6708824,0 0,24.752 0,55.2872727 C0,79.7100606 15.7854412,100.433455 37.6794118,107.744 C40.4360294,108.253091 41.4405882,106.545939 41.4405882,105.079758 C41.4405882,103.766303 41.3932353,100.290909 41.3661765,95.6751515 C26.0407353,99.0181818 22.8072059,88.2661818 22.8072059,88.2661818 C20.3008824,81.8787879 16.6885294,80.1784242 16.6885294,80.1784242 C11.6860294,76.7471515 17.0673529,76.8184242 17.0673529,76.8184242 C22.5975,77.2087273 25.5063235,82.5168485 25.5063235,82.5168485 C30.4242647,90.9643636 38.4032353,88.5241212 41.5420588,87.1088485 C42.0426471,83.5350303 43.4666176,81.1015758 45.0394118,79.7168485 C32.8054412,78.3219394 19.9423529,73.5806061 19.9423529,52.3956364 C19.9423529,46.3578182 22.0901471,41.4230303 25.6145588,37.5573333 C25.0497059,36.1590303 23.1589706,30.5386667 26.1557353,22.9260606 C26.1557353,22.9260606 30.7827941,21.4395152 41.3052941,28.5939394 C45.7023529,27.3687273 50.4139706,26.7544242 55.0985294,26.7340606 C59.7797059,26.7544242 64.4913235,27.3687273 68.8951471,28.5939394 C79.4108824,21.4395152 84.0311765,22.9260606 84.0311765,22.9260606 C87.0347059,30.5386667 85.1439706,36.1590303 84.5791176,37.5573333 C88.1102941,41.4230303 90.2411765,46.3578182 90.2411765,52.3956364 C90.2411765,73.6315152 77.3611765,78.3049697 65.0866176,79.6761212 C67.0652941,81.3832727 68.8241176,84.7568485 68.8241176,89.9122424 C68.8241176,97.3042424 68.7598529,103.267394 68.7598529,105.079758 C68.7598529,106.559515 69.7508824,108.276848 72.5480882,107.737212 C94.4217647,100.413091 110.193676,79.7066667 110.193676,55.2872727 C110.193676,24.752 85.5227941,0 55.0917647,0" id="Imported-Layers" fill="#FFFFFF" sketch:type="MSShapeGroup"></path>
    </g>
</svg>

<svg width="111" height="108" viewBox="0 0 111 108" xmlns="http://www.w3.org/2000/svg"><title>Imported Layers</title><path d="M55.092 0C24.672 0 0 24.752 0 55.287c0 24.423 15.785 45.146 37.68 52.457 2.756.51 3.76-1.198 3.76-2.664 0-1.314-.047-4.79-.074-9.405-15.325 3.343-18.56-7.41-18.56-7.41-2.505-6.386-6.117-8.087-6.117-8.087-5.004-3.43.377-3.36.377-3.36 5.53.39 8.44 5.7 8.44 5.7 4.917 8.446 12.896 6.006 16.035 4.59.5-3.573 1.925-6.006 3.497-7.39C32.804 78.32 19.94 73.58 19.94 52.395c0-6.038 2.148-10.973 5.673-14.84-.565-1.397-2.456-7.017.54-14.63 0 0 4.628-1.486 15.15 5.668 4.397-1.225 9.11-1.84 13.794-1.86 4.68.02 9.39.635 13.795 1.86C79.41 21.44 84.03 22.926 84.03 22.926c3.005 7.613 1.114 13.233.55 14.63 3.53 3.867 5.66 8.802 5.66 14.84 0 21.236-12.88 25.91-25.153 27.28 1.978 1.707 3.737 5.08 3.737 10.236 0 7.392-.064 13.355-.064 15.168 0 1.48.99 3.197 3.788 2.657 21.874-7.324 37.646-28.03 37.646-52.45C110.194 24.752 85.524 0 55.092 0" fill="#FFF" fill-rule="evenodd"/></svg>
